X:1
T:Title
%%score { ( 1 4 ) | ( 2 3 ) }
L:1/8
Q:1/4=100
M:6/8
K:Ab
V:1 treble nm="Grand Piano"
V:4 treble 
V:2 bass 
V:3 bass 
V:1
 [Ec][DB][CA] [EG]2 [DF] | [CE]3 [CEA]2 [CEA] | [DFA][DF][A,EG] [A,FA]2 [FB] | [Ec]6 | %4
w: D.~B.~Towner * * * *||||
 [Ec][DB][CA] [EG]2 [DF] | [CE]3 [CEA]2 [CEA] | B2 E c2 B |[M:5/8] [A,CA]-[A,CA]- [A,CA]3 | %8
w: ||||
[M:1/8] [CEA] |[M:3/4] [FA][EG] [DF] [FA]2 [FB] | [=Ec]3 [EG]2 [EG] | AG F A2 [FB] | %12
w: ||||
[M:5/8] [=Ec]-[Ec]- [Ec]3 |[M:1/8] [Ec] |[M:3/4] [Fd]2 [Fd] [Ec]2 [EB] | [Ee]3 [EA]2 [FB] | %16
w: ||||
 c2 d c2 B | [CEA]6 | E3 F2 E | [DG-]4 G2 | E3 F2 E | [CA]6 | [DFA]3 [DEG]2 [A,DF] | %23
w: |||||||
 [A,CE]3 [CEA]3 | .[B,=DA]2 [DF][DF] [EG][FA] | B3 _c3 | c3 B2 A | [DG]6 | d3 c2 B | [CA]6 | %30
w: |||||||
 e3 [B=e]2 [Be] | [Af][Fd] [B,FB][CEA] EA | c6 | [CEA]6 |] %34
w: ||||
V:2
 [A,,A,][A,,A,][A,,A,] [A,,A,]2 [A,,A,] | [A,,A,]3 A,,2 A,, | z A,D, D,2 [D,A,] | [A,,A,]6 | %4
 [A,,A,][A,,A,][A,,A,] [A,,A,]2 [A,,A,] | [A,,A,]3 A,,2 A,, | [E,G,D]2 [E,G,D] [E,G,E]2 [E,G,D] | %7
[M:5/8] A,,-A,,- A,,3 |[M:1/8] A,, |[M:3/4] [D,D]2 [D,A,] [D,A,]2 [D,F,] | [C,G,]3 [C,C]2 [C,C] | %11
 .C2 z2 z2 |[M:5/8] [C,G,]-[C,G,]- [C,G,]3 |[M:1/8] [C,G,] | %14
[M:3/4] [B,,G,]2 [B,,G,] [E,A,]2 [D,G,] | [C,A,]3 [C,A,]2 [D,A,] | %16
 [E,A,E]2 [E,B,E] [E,A,E]2 [E,DE] | A,,6 | C3 D2 C | E,E, E, [E,D]3 | D3 D2 D | A,,A,, A,, A,,3 | %22
 D,3 D,2 D, | A,,3 A,,3 | z G [B,,B,] [B,,B,]2 [B,,B,] | [E,G,E]6 | E3 D2 C | E,E, E, E,3 | %28
 F3 E2 D | A,A, A, A,3 | [A,CA]3[K:bass] [G,C]2 [G,C] | CB, .D,2 [A,C][E,A,C] | %32
 [E,A,E]2 [E,A,] [E,G,]2 [E,DE] | A,,6 |] %34
V:3
 x6 | x6 | .D,3 z3 | x6 | x6 | x6 | x6 |[M:5/8] x5 |[M:1/8] x |[M:3/4] x6 | x6 | %11
 [F,F]-[F,B,F] [F,A,] [F,CF]2 [D,F,] |[M:5/8] x5 |[M:1/8] x |[M:3/4] x6 | x6 | x6 | x6 | x6 | x6 | %20
 x6 | x6 | x6 | x6 | B,,2 z2 z2 | x6 | x6 | x6 | x6 | x6 | x3[K:bass] x3 | F,2 z .E,3 | x6 | x6 |] %34
V:4
 x6 | x6 | x6 | x6 | x6 | x6 | x6 |[M:5/8] x5 |[M:1/8] x |[M:3/4] x6 | x6 | x6 |[M:5/8] x5 | %13
[M:1/8] x |[M:3/4] x6 | x6 | x6 | x6 | x6 | EE E E3 | x6 | EE E E3 | x6 | x6 | x6 | x6 | x6 | %27
 EE E E3 | x6 | EE E E3 | x6 | x6 | z2 E E2 B | x6 |] %34

